assets/icons/download.svg

<svg fill="none" height="40" viewBox="0 0 40 40" width="40" xmlns="http://www.w3.org/2000/svg"><path clip-rule="evenodd" d="m17.9035 4.80562c0-.44183-.3582-.8-.8-.8-.4419 0-.8.35817-.8.8v14.39998h-8.30348c-.34593 0-.65267.2224-.76029.5511-.10763.3288.00824.6895.2872.894l11.99997 8.8c.2816.2065.6646.2065.9462 0l12-8.8c.279-.2045.3948-.5652.2872-.894-.1076-.3287-.4143-.5511-.7603-.5511h-8.3034v-14.39998c0-.44183-.3582-.8-.8-.8-.4419 0-.8.35817-.8.8v15.19998c0 .4418.3581.8.8.8h6.6597l-9.5563 7.008-9.5563-7.008h6.6598c.4418 0 .8-.3582.8-.8zm-10.1035 28.40008c-.44183 0-.8.3581-.8.8 0 .4418.35817.8.8.8h24.4c.4418 0 .8-.3582.8-.8 0-.4419-.3582-.8-.8-.8z" fill="#fff" fill-rule="evenodd"/></svg>

<svg width="40" height="40" viewBox="0 0 40 40" fill="none" xmlns="http://www.w3.org/2000/svg">
<path fill-rule="evenodd" clip-rule="evenodd" d="M17.9035 4.80562C17.9035 4.36379 17.5453 4.00562 17.1035 4.00562C16.6616 4.00562 16.3035 4.36379 16.3035 4.80562V19.2056H8.00002C7.65409 19.2056 7.34735 19.428 7.23973 19.7567C7.1321 20.0855 7.24797 20.4462 7.52693 20.6507L19.5269 29.4507C19.8085 29.6572 20.1915 29.6572 20.4731 29.4507L32.4731 20.6507C32.7521 20.4462 32.8679 20.0855 32.7603 19.7567C32.6527 19.428 32.346 19.2056 32 19.2056H23.6966V4.80562C23.6966 4.36379 23.3384 4.00562 22.8966 4.00562C22.4547 4.00562 22.0966 4.36379 22.0966 4.80562V20.0056C22.0966 20.4474 22.4547 20.8056 22.8966 20.8056H29.5563L20 27.8136L10.4437 20.8056H17.1035C17.5453 20.8056 17.9035 20.4474 17.9035 20.0056V4.80562ZM7.8 33.2057C7.35817 33.2057 7 33.5638 7 34.0057C7 34.4475 7.35817 34.8057 7.8 34.8057H32.2C32.6418 34.8057 33 34.4475 33 34.0057C33 33.5638 32.6418 33.2057 32.2 33.2057H7.8Z" fill="white"/>
</svg>
